src/images/fork.svg

<svg fill="none" height="56" viewBox="0 0 56 56" width="56" xmlns="http://www.w3.org/2000/svg"><path d="m49.0062 33.103c-.0872-.7268-.7559-1.2792-1.5118-1.2792l-7.4718.029c-.407 0-.7268-.3198-.7268-.7268v-1.3374c0-.407.3198-.7268.7268-.7268h7.5009c.7559 0 1.4246-.5524 1.5118-1.2792.0872-.8431-.5814-1.57-1.3955-1.57h-7.559c-.4071 0-.7269-.3198-.7269-.7268v-1.3374c0-.407.3198-.7268.7269-.7268h7.4427c.7559 0 1.4246-.5524 1.5118-1.2792.0872-.8431-.5814-1.57-1.3955-1.57l-10.728.0291c-2.0352 0-3.954.9885-5.0878 2.6457-.7559 1.1048-2.0352 1.7444-3.3725 1.6862l-24.74137-.6687c-1.88976-.029-1.88976 6.7741 0 6.745l24.77037-.6396c1.3374-.0581 2.6166.5815 3.3725 1.6863 1.163 1.6862 3.0527 2.6456 5.0878 2.6456h10.6409c.8431-.0291 1.5118-.7559 1.4245-1.599z" fill="#3c827a"/></svg>

<svg width="56" height="56" viewBox="0 0 56 56" fill="none" xmlns="http://www.w3.org/2000/svg">
  <path d="M49.0062 33.103C48.919 32.3762 48.2503 31.8238 47.4944 31.8238L40.0226 31.8528C39.6156 31.8528 39.2958 31.533 39.2958 31.126L39.2958 29.7886C39.2958 29.3816 39.6156 29.0618 40.0226 29.0618L47.5235 29.0618C48.2794 29.0618 48.9481 28.5094 49.0353 27.7826C49.1225 26.9395 48.4539 26.2126 47.6398 26.2126L40.0808 26.2126C39.6737 26.2126 39.3539 25.8928 39.3539 25.4858L39.3539 24.1484C39.3539 23.7414 39.6737 23.4216 40.0808 23.4216L47.5235 23.4216C48.2794 23.4216 48.9481 22.8692 49.0353 22.1424C49.1225 21.2993 48.4539 20.5724 47.6398 20.5724L36.9118 20.6015C34.8766 20.6015 32.9578 21.59 31.824 23.2472C31.0681 24.352 29.7888 24.9916 28.4515 24.9334L3.71013 24.2647C1.82037 24.2357 1.82037 31.0388 3.71013 31.0097L28.4805 30.3701C29.8179 30.312 31.0971 30.9516 31.853 32.0564C33.016 33.7426 34.9057 34.702 36.9408 34.702L47.5817 34.702C48.4248 34.6729 49.0935 33.9461 49.0062 33.103Z" fill="#3C827A"/>
</svg>
